frontend/public/img/icons/facebook@1,5x.svg

<?xml version="1.0" encoding="UTF-8"?>
<!--
OpenPantheon: the pantheon for Education
Copyright (C) 2021 CRI

This program is free software: you can redistribute it and/or modify
it under the terms of the GNU Affero General Public License as published
by the Free Software Foundation, either version 3 of the License, or
(at your option) any later version.

This program is distributed in the hope that it will be useful,
but WITHOUT ANY WARRANTY; without even the implied warranty of
MERCHANTABILITY or FITNESS FOR A PARTICULAR PURPOSE.  See the
GNU Affero General Public License for more details.

You should have received a copy of the GNU Affero General Public License
along with this program.  If not, see <https://www.gnu.org/licenses/>.
-->
<svg width="56px" height="56px" viewBox="0 0 56 56" version="1.1" xmlns="http://www.w3.org/2000/svg" xmlns:xlink="http://www.w3.org/1999/xlink">
    <title>37D4BBAA-CE24-419A-8B65-270572D0857A@1,5x</title>
    <g id="Page-1" stroke="none" stroke-width="1" fill="none" fill-rule="evenodd">
        <g id="02_Home" transform="translate(-596.000000, -3004.000000)" fill="#FFFFFF">
            <g id="Footer" transform="translate(0.000000, 2816.000000)">
                <g id="Socials" transform="translate(596.000000, 188.000000)">
                    <path d="M28,0 C43.463973,0 56,12.536027 56,28 C56,43.463973 43.463973,56 28,56 C12.536027,56 0,43.463973 0,28 C0,12.536027 12.536027,0 28,0 Z M31.7272797,10 C26.6073813,10 23.2986781,13.4774196 23.2986781,18.8596486 L23.2986781,22.9445398 L18.716581,22.9445398 C18.3206335,22.9445398 18,23.2733685 18,23.6789738 L18,29.5975157 C18,30.003121 18.3209991,30.3315752 18.716581,30.3315752 L23.2986781,30.3315752 L23.2986781,45.2659405 C23.2986781,45.6715458 23.6193115,46 24.0152591,46 L29.9935923,46 C30.3895399,46 30.7101734,45.6711713 30.7101734,45.2659405 L30.7101734,30.3315752 L36.0677134,30.3315752 C36.463661,30.3315752 36.7842945,30.003121 36.7842945,29.5975157 L36.7864881,23.6789738 C36.7864881,23.4842233 36.7108084,23.2977123 36.5766322,23.1598889 C36.4424561,23.0220655 36.2596548,22.9445398 36.0695415,22.9445398 L30.7101734,22.9445398 L30.7101734,19.4817265 C30.7101734,17.817359 31.0973465,16.9724416 33.2138198,16.9724416 L36.2837846,16.971318 C36.6793665,16.971318 37,16.6424893 37,16.2372585 L37,10.7415499 C37,10.3366936 36.6797321,10.0082394 36.2845158,10.0074904 L31.7272797,10 Z" id="Facebook"></path>
                </g>
            </g>
        </g>
    </g>
</svg>

<?xml version="1.0" encoding="UTF-8"?>
<!--
OpenPantheon: the pantheon for Education
Copyright (C) 2021 CRI

This program is free software: you can redistribute it and/or modify
it under the terms of the GNU Affero General Public License as published
by the Free Software Foundation, either version 3 of the License, or
(at your option) any later version.

This program is distributed in the hope that it will be useful,
but WITHOUT ANY WARRANTY; without even the implied warranty of
MERCHANTABILITY or FITNESS FOR A PARTICULAR PURPOSE.  See the
GNU Affero General Public License for more details.

You should have received a copy of the GNU Affero General Public License
along with this program.  If not, see <https://www.gnu.org/licenses/>.
-->
<svg width="56" height="56" xmlns="http://www.w3.org/2000/svg"><path d="M28 0c15.464 0 28 12.536 28 28S43.464 56 28 56 0 43.464 0 28 12.536 0 28 0Zm3.727 10c-5.12 0-8.428 3.477-8.428 8.86v4.085h-4.582a.726.726 0 0 0-.717.734v5.919c0 .405.321.734.717.734h4.582v14.934c0 .406.32.734.716.734h5.979a.725.725 0 0 0 .716-.734V30.332h5.358a.725.725 0 0 0 .716-.734l.002-5.919a.744.744 0 0 0-.21-.52.708.708 0 0 0-.506-.214h-5.36v-3.463c0-1.665.387-2.51 2.504-2.51h3.07a.725.725 0 0 0 .716-.735v-5.495a.726.726 0 0 0-.715-.735L31.727 10Z" fill="#FFF" fill-rule="evenodd"/></svg>
